X:1
T:Bevan, 66.66.68
T:Bevan, 66.66.68
T:John Goss, 1853
T:Public Domain Courtesy of the Cyber Hymnal™
C:John Goss, 1853
Z:Public Domain
Z:Courtesy of the Cyber Hymnal™
%%score ( 1 2 ) ( 3 4 )
L:1/8
Q:1/4=115
M:4/4
K:Eb
V:1 treble 
V:2 treble 
V:3 bass 
V:4 bass 
V:1
 [B,E]2 | E2 [DF]2 [EG]2 [EA]2 | [DB]6 [EB]2 | [FB]2 [EB]2 [EA]2 [EG]2 | [DF]6 [DF]2 | %5
 [EG]2 [EA]2 [EB]2 (cd) | [Ge]6 [Fd]2 | [Ec]2 [DB]2 [GB]2 [F=A]2 | [FB]6 [GB]2 | %9
 [Ec]2 [Ee]2 [Fd]2 [Gc]2 | [FB]2 [DA]2 [EG]2 E2 | [EA]2 [Ec]2 [EB]2 [FA]2 | [EG]4 [DF]4 | E6 |] %14
V:2
 x2 | (B,C) x6 | x8 | x8 | x8 | x6 A2 | x8 | x8 | x8 | x8 | x8 | x8 | x8 | E6 |] %14
V:3
 [E,G,]2 | [G,B,]2 [F,A,]2 ([E,G,][D,F,]) [C,E,]2 | [B,,F,]6 [E,G,]2 | [D,F,]2 G,2 C2 [E,B,]2 | %4
 [B,,B,]6 [B,,B,]2 | [E,B,]2 [A,C]2 [G,B,]2 [F,A,]2 | [E,B,]6 [B,,B,]2 | %7
 (G,=A,) [D,B,]2 (CD) [F,E]2 | [B,,D]6 (ED) | [A,C]2 [G,B,]2 [F,A,]2 (G,A,) | %10
 [D,B,]2 [B,,F,]2 [E,G,]2 [_D,G,]2 | [C,A,]2 [A,,A,]2 [G,,B,]2 [A,,C]2 | [B,,B,]4 [B,,A,]4 | %13
 [E,G,]6 |] %14
V:4
 x2 | x8 | x8 | x2 (E,D,) (C,D,) x2 | x8 | x8 | x8 | C,2 x E,2 x3 | x6 E,2 | x6 E,2 | x8 | x8 | %12
 x8 | x6 |] %14

